X:1
T:Campbell's Farewell Waltz
C:Craig Newberger  
M:3/4
K:D
A|"D" a4aa |"F#m"a4 gf| "Em"g4gg|"A"g4 fe |
"D"f4 ff |"Bm"f4 gf|"Em"e4B2 |"A"c4 A2|
"D" a4aa |"F#m"a4 ba |"Em"g4gg|"A"g4 fe| 
"D"f4 ff |"Bm"f4 ed|"A"A2c2e2|"D"d4 "D7"d2||
"G"B4 cd| "D"A4 cd| "A"c4de|"D"f2d2A2|
"G"B4 cd| "D"A4 cd|"A"c2d2e2|"D"d4 "D7"=c2|
"G"B4 cd| "D"A4 cd| "A"c4de|"D"fe d2 A2|
"G"B4 cd| "D"A4 cd|"A"c4de|"D"d6 |]
W:  Craig Newberger. All rights reserved. Used by permission.
